src/svg/wikipedia-w.svg

<svg height="1000" width="1250.0" xmlns="http://www.w3.org/2000/svg">
    <path d="m1250 100l-0.6 23.8c-54.9 1.6-87.9 30.9-109 78.7-48.8 112.9-201.7 468.8-303.3 700.4h-26.6l-159.9-377.1c-63.5 124.2-133.4 253.9-193.8 377.1-0.6 0.6-29.3 0-29.3-0.6-91.6-214.2-187.7-426.9-279.5-641.8-22.2-52.1-96.4-136.7-147.6-136.1 0-6-0.6-19.5-0.6-27.7h316.2v27.1c-37.5 2.2-103.1 26-84.6 66.8 42.8 97.1 202.4 469.4 245.4 563.7 29.3-58 112.8-213.3 147-278.9-27.1-55.3-114.4-261.5-142.2-312.5-18.9-34.8-70.5-37.9-108.9-38.5v-27.1l278.3 0.6v25.5c-37.9 1.2-74.4 15.3-57.4 51 36.9 78.1 59.7 133 93.9 204.5 10.9-21.1 67.8-135.5 93.9-196.9 17.4-40.2-7.6-55.8-75.3-57.4 0.5-7 0-20.1 0.5-26.6 86.8-0.5 217-0.5 240.5-1.1v26.5c-44 1.6-89.5 25-113.5 62l-115.6 239.8c12.5 31.4 123.6 278.9 135.1 306.1l239.1-552c-16.8-45.1-71.1-54.9-92.2-55.3v-27.1l249.6 2.1z" />
  </svg>

<svg height="1000" width="1250" xmlns="http://www.w3.org/2000/svg"><path d="M1250 100l-.6 23.8c-54.9 1.6 -87.9 30.9 -109 78.7C1091.6 315.4 938.7 671.3 837.1 902.9h-26.6L650.6 525.8C587.1 650 517.2 779.7 456.8 902.9c-.5 .6 -29.3 0 -29.3 -.6C335.9 688.1 239.8 475.4 148 260.5 125.8 208.4 51.6 123.8 .4 124.4c0 -6 -.6 -19.5 -.6 -27.7H316v27.1c-37.5 2.2 -103.1 26 -84.6 66.8 42.8 97.1 202.4 469.4 245.4 563.7 29.3 -58 112.8 -213.3 147 -278.9C596.7 420.1 509.4 213.9 481.6 162.9 462.7 128.1 411.1 125 372.7 124.4V97.3l278.3 .6v25.5c-37.9 1.2 -74.4 15.3 -57.4 51 36.9 78.1 59.7 133 93.9 204.5C698.4 357.8 755.3 243.4 781.4 182c17.4 -40.2 -7.6 -55.8 -75.3 -57.4 .5 -7 0 -20.1 .5 -26.6 86.8 -.5 217 -.5 240.5 -1.1v26.5c-44 1.6 -89.5 25 -113.5 62L718 425.2c12.5 31.4 123.6 278.9 135.1 306.1l239.1 -552C1075.4 134.2 1021.1 124.4 1000 124V96.9l249.6 2.1 .4 1z"/></svg>
